li/gui-sign-in.svg

<svg role="img" focusable="false" aria-hidden="true" xmlns="http://www.w3.org/2000/svg" viewBox="0 0 14 14" height="1em" width="1em">
  <path d="m 10.25,7.00001 q 0,0.20313 -0.14844,0.35156 l -4.25,4.25 Q 5.70312,11.75001 5.5,11.75001 q -0.20312,0 -0.35156,-0.14844 Q 5,11.45313 5,11.25001 v -2.25 H 1.5 q -0.203125,0 -0.351563,-0.14844 Q 1,8.70314 1,8.50001 v -3 Q 1,5.29689 1.148437,5.14845 1.296875,5.00001 1.5,5.00001 H 5 v -2.25 Q 5,2.54689 5.14844,2.39845 5.29688,2.25001 5.5,2.25001 q 0.20312,0 0.35156,0.14844 l 4.25,4.25 Q 10.25,6.79689 10.25,7.00001 z m 2.75,-2.75 v 5.5 q 0,0.92969 -0.66016,1.58984 -0.66015,0.66016 -1.58984,0.66016 h -2.5 q -0.10156,0 -0.17578,-0.0742 -0.0742,-0.0742 -0.0742,-0.17578 0,-0.0312 -0.008,-0.15625 -0.008,-0.125 -0.004,-0.20703 0.004,-0.082 0.0234,-0.1836 0.0195,-0.10156 0.0781,-0.15234 0.0586,-0.0508 0.16016,-0.0508 h 2.5 q 0.51563,0 0.88281,-0.36719 Q 12,10.26564 12,9.75001 v -5.5 Q 12,3.73439 11.63281,3.3672 11.26563,3.00001 10.75,3.00001 H 8.3125 L 8.2227,2.99201 8.1329,2.96861 8.0704,2.92561 8.0157,2.85531 8,2.75001 Q 8,2.71881 7.992,2.59376 7.984,2.46876 7.988,2.38673 7.992,2.30473 8.0114,2.20314 8.0309,2.10157 8.0895,2.05079 8.1481,1.99999 8.24966,1.99999 h 2.5 q 0.92969,0 1.58984,0.66016 Q 13,3.32032 13,4.25001 z"/>
</svg>

<svg aria-hidden="true" xmlns="http://www.w3.org/2000/svg" viewBox="0 0 14 14" height="1em" width="1em">
  <path d="M10.25 7q0 .203-.148.352l-4.25 4.25q-.149.148-.352.148-.203 0-.352-.148Q5 11.453 5 11.25V9H1.5q-.203 0-.352-.148Q1 8.703 1 8.5v-3q0-.203.148-.352Q1.297 5 1.5 5H5V2.75q0-.203.148-.352.149-.148.352-.148.203 0 .352.148l4.25 4.25q.148.149.148.352zM13 4.25v5.5q0 .93-.66 1.59t-1.59.66h-2.5q-.102 0-.176-.074T8 11.75q0-.031-.008-.156t-.004-.207q.004-.082.023-.184.02-.101.079-.152.058-.051.16-.051h2.5q.515 0 .882-.367.368-.367.368-.883v-5.5q0-.516-.367-.883T10.75 3H8.312l-.09-.008-.09-.023-.062-.043-.054-.07L8 2.75q0-.031-.008-.156t-.004-.207q.004-.082.023-.184.02-.101.079-.152Q8.147 2 8.25 2h2.5q.93 0 1.59.66T13 4.25z"/>
</svg>
